storage/app/icons/phosphoricons/duotone/magnet-straight-duotone.svg

<svg xmlns="http://www.w3.org/2000/svg" fill="currentColor" viewBox="0 0 256 256"><path d="M104 56v40H48V56a8 8 0 0 1 8-8h40a8 8 0 0 1 8 8m96-8h-40a8 8 0 0 0-8 8v40h56V56a8 8 0 0 0-8-8" opacity=".2"/><path d="M200 40h-40a16 16 0 0 0-16 16v88a16 16 0 0 1-32 0V56a16 16 0 0 0-16-16H56a16 16 0 0 0-16 16v88a88 88 0 0 0 88 88h.67c48.15-.36 87.33-40.29 87.33-89V56a16 16 0 0 0-16-16m0 16v32h-40V56ZM96 56v32H56V56Zm32.55 160A72 72 0 0 1 56 144v-40h40v40a32 32 0 0 0 64 0v-40h40v39c0 40-32 72.71-71.45 73"/></svg>

<svg xmlns="http://www.w3.org/2000/svg" viewBox="0 0 256 256" fill="currentColor"><path d="M104,56V96H48V56a8,8,0,0,1,8-8H96A8,8,0,0,1,104,56Zm96-8H160a8,8,0,0,0-8,8V96h56V56A8,8,0,0,0,200,48Z" opacity="0.2"/><path d="M200,40H160a16,16,0,0,0-16,16v88a16,16,0,0,1-32,0V56A16,16,0,0,0,96,40H56A16,16,0,0,0,40,56v88a88,88,0,0,0,88,88h.67c48.15-.36,87.33-40.29,87.33-89V56A16,16,0,0,0,200,40Zm0,16V88H160V56ZM96,56V88H56V56Zm32.55,160A72,72,0,0,1,56,144V104H96v40a32,32,0,0,0,64,0V104h40v39C200,183,168,215.71,128.55,216Z"/></svg>
